X: 982
T: All You Need Is Move
R: reel
M: 4/4
K: Gmajor
G2ED G2Bd|eBdB ABGE|G2ED G2Bd|1 egdB A2GE:|2 egdB ABcd||
e3d eage|dB~B2 dBAG|e3d eage|dBGB ABcd|
e3d eage|dB~B2 dBAG|eAAG BAGE|DEGB ABGE||

